korla/apps/scalable/com.beakerbrowser.Beaker.svg

<svg width="48" height="48" xmlns="http://www.w3.org/2000/svg">
 <rect x="4" y="5" width="40" height="40" rx="20" opacity=".2"/>
 <rect x="4" y="4" width="40" height="40" rx="20" fill="#614eff"/>
 <path d="m24 4c-11.08 0-20 8.92-20 20 0 .167874.00765.333141.011719.5.2646714-10.846137 9.076155-19.5 19.988281-19.5s19.72361 8.653863 19.988281 19.5c.004072-.166859.011719-.332126.011719-.5 0-11.08-8.92-20-20-20z" fill="#fff" opacity=".1"/>
 <path d="m24 12a13 13 0 0 0 -13 13 13 13 0 0 0 13 13 13 13 0 0 0 13-13 13 13 0 0 0 -1.707031-6.419922c-.0593-.241886-.113575-.552002-.191407-1.076172-.05884-.396286-.07225-.743981-.0625-1.605468.0068-.605127.01498-1.289581.01758-1.519532.0042-.371742-.0079-.442487-.111329-.640625-.06886-.131805-.169136-.260786-.289062-.375-.283426-.33208-.682547-.300806-.957032-.363281-.972317.104674-2.379752.235097-3.25.279297h-.84961l-.371093-.179688c-.06897-.03336-.161674-.06224-.240235-.09375a13 13 0 0 0 -4.988281-1.005859zm0 4a9 9 0 0 1 9 9 9 9 0 0 1 -9 9 9 9 0 0 1 -9-9 9 9 0 0 1 9-9z" opacity=".2"/>
 <g fill="#fff">
  <path d="m24 11a13 13 0 0 0-13 13 13 13 0 0 0 13 13 13 13 0 0 0 13-13 13 13 0 0 0-13-13zm0 4a9 9 0 0 1 9 9 9 9 0 0 1-9 9 9 9 0 0 1-9-9 9 9 0 0 1 9-9z"/>
  <path d="m27.856 11.605468c1.725282.683276 2.424477 3.404983 3.806859 4.693624 1.881521 1.753932 4.228324 2.293686 4.738454 4.767314-.04937-.261384-.101771-.557913-.132813-.689453-.141642-.600199-.501244-1.646907-.732422-2.130859-.220928-.462497-.274546-.671061-.433593-1.742188-.05884-.396286-.07225-.743981-.0625-1.605469.0068-.605126.01498-1.28958.01758-1.519531.0042-.371742-.0079-.442487-.111328-.640625-.06886-.131805-.16982-.26131-.289746-.375524-.135909-.15924-.298264-.234809-.460716-.277224-.523308-.139475-1.096329-.02424-1.568426.02272-.772741.07326-1.596625.14146-2.179059.171042h-.849611l-.371094-.179686c-.395192-.191142-.981796-.350648-1.371585-.494141zm8.566797 9.564454c.05807.308099.104976.618197.140625.929687-.018-.199651-.03956-.376001-.08594-.644531-.01769-.102394-.03451-.176047-.05469-.285156z"/>
 </g>
</svg>

<svg xmlns="http://www.w3.org/2000/svg" width="48" height="48" version="1">
 <rect style="opacity:0.2" width="40" height="40" x="4" y="5" rx="20" ry="20"/>
 <rect style="fill:#614eff" width="40" height="40" x="4" y="4" rx="20" ry="20"/>
 <path style="opacity:0.1;fill:#ffffff" d="M 24,4 C 12.92,4 4,12.92 4,24 4,24.167874 4.00765,24.333141 4.011719,24.5 4.2763904,13.653863 13.087874,5 24,5 34.912126,5 43.72361,13.653863 43.988281,24.5 43.992353,24.333141 44,24.167874 44,24 44,12.92 35.08,4 24,4 Z"/>
 <path style="opacity:0.2" d="M 24,12 A 13,13 0 0 0 11,25 13,13 0 0 0 24,38 13,13 0 0 0 37,25 13,13 0 0 0 35.292969,18.580078 c -0.0593,-0.241886 -0.113575,-0.552002 -0.191407,-1.076172 -0.05884,-0.396286 -0.07225,-0.743981 -0.0625,-1.605468 0.0068,-0.605127 0.01498,-1.289581 0.01758,-1.519532 0.0042,-0.371742 -0.0079,-0.442487 -0.111329,-0.640625 -0.06886,-0.131805 -0.169136,-0.260786 -0.289062,-0.375 C 34.372825,13.031201 33.973704,13.062475 33.699219,13 c -0.972317,0.104674 -2.379752,0.235097 -3.25,0.279297 h -0.84961 l -0.371093,-0.179688 c -0.06897,-0.03336 -0.161674,-0.06224 -0.240235,-0.09375 A 13,13 0 0 0 24,12 Z m 0,4 a 9,9 0 0 1 9,9 9,9 0 0 1 -9,9 9,9 0 0 1 -9,-9 9,9 0 0 1 9,-9 z"/>
 <path style="fill:#ffffff" d="M 24,11 A 13,13 0 0 0 11,24 13,13 0 0 0 24,37 13,13 0 0 0 37,24 13,13 0 0 0 24,11 Z m 0,4 a 9,9 0 0 1 9,9 9,9 0 0 1 -9,9 9,9 0 0 1 -9,-9 9,9 0 0 1 9,-9 z"/>
 <path style="fill:#ffffff" d="m 27.856,11.605468 c 1.725282,0.683276 2.424477,3.404983 3.806859,4.693624 1.881521,1.753932 4.228324,2.293686 4.738454,4.767314 -0.04937,-0.261384 -0.101771,-0.557913 -0.132813,-0.689453 -0.141642,-0.600199 -0.501244,-1.646907 -0.732422,-2.130859 -0.220928,-0.462497 -0.274546,-0.671061 -0.433593,-1.742188 -0.05884,-0.396286 -0.07225,-0.743981 -0.0625,-1.605469 0.0068,-0.605126 0.01498,-1.28958 0.01758,-1.519531 0.0042,-0.371742 -0.0079,-0.442487 -0.111328,-0.640625 -0.06886,-0.131805 -0.16982,-0.26131 -0.289746,-0.375524 -0.135909,-0.15924 -0.298264,-0.234809 -0.460716,-0.277224 -0.523308,-0.139475 -1.096329,-0.02424 -1.568426,0.02272 -0.772741,0.07326 -1.596625,0.14146 -2.179059,0.171042 H 29.598679 L 29.227585,12.099609 C 28.832393,11.908467 28.245789,11.748961 27.856,11.605468 Z m 8.566797,9.564454 c 0.05807,0.308099 0.104976,0.618197 0.140625,0.929687 -0.018,-0.199651 -0.03956,-0.376001 -0.08594,-0.644531 -0.01769,-0.102394 -0.03451,-0.176047 -0.05469,-0.285156 z"/>
</svg>
